X: 08035
T: ENID'S HORNPIPE
C: Bob McQuillen 12 Jan 91
B: Bob's Note Book 8 #35
%R: hornpipe, reel
Z: 2021 John Chambers <jc:trillian.mit.edu>
M: C
L: 1/8
K: G	% and D
B,A, \
| G,B,DE DGBG | DB,DG EDGB | cedc BGcB | AGFE D2B,A, |\
| G,B,DE DGBG | DB,DG EDGB | cdcB AGFE | D2G2 G2 :|
K: D
|:AG \
| FAdf edcd | BdcB ABAG | FABA defg | f2e2 e2AG |\
| FAdf edcd | BdcB ABAG | FDFA dBAG | F2D2 D2 :|
%%begintext align
%% Enid Diamante
%% is a real fine fiddler from Philly who plays with the
%% S.P.U.D.S. Band, and she's also a member of a smaller group that
%% includes my friend Eddy Bonsall on the hammer dulcimer. I
%% always look forward to playing with her when I'm down that
%% way, and I hope it happens again real soon, Enid!
%%endtext

%%sep 1 1 500

%%sep 1 1 500

